!!!!SEGMENT: pl-kk--kk-i-66--004_anonim--missa-alleluia-virga-jesse-floruit.krn
!!!cenid: 17xx:2261
!!!COM: Anonim
!!!COM-rism: pe30004985
!!!CDT:
!!!CNT:
!!!OTL: Missa – Alleluia Virga jesse floruit
!!!PDT:
!!!AGN: Sacred; Mass
!!!SMS-siglum: PL-Kk
!!!SMS-shelfmark: Kk.I.66
!!!NIFC-rismID: 1001154622
!!!URL-scan: http://repozytorium.nifc.pl/skany/pl-kk-nut--i-66
!!!ONB-nifc: UWAGA: części Mszy: 1. Salve sancta parens, 2. Kyrie, 3. Et in terra, 4. Alleluia virga jesse floruit, 5. Beata es virgo Maria, 6. Sanctus, 7. Agnus Dei, 8. Dona nobis, 9. Deo gratias
!!!SMS-variant: Basso PL-Kk Kk.I.66 0013
!!!SMS-altvar: Basso PL-Kk Kk.I.66 0018
**kern	**text	**kern	**text	**kern	**text
*part3	*part3	*part2	*part2	*part1	*part1
*staff3	*staff3	*staff2	*staff2	*staff1	*staff1
*I"Basso	*	*I"Tenore Secundo	*	*I"Tenore Primo	*
*I'B.	*	*I'T 2	*	*I'T 1	*
*clefF4	*	*clefC4	*	*clefC4	*
*k[]	*	*k[]	*	*k[]	*
*M3/2	*	*M3/2	*	*M3/2	*
=1	=1	=1	=1	=1	=1
2r	.	2r	.	2r	.
*2\right	*	*	*	*2\right	*
2c\	Al-	2G/	Al-	2e\	Al-
*	*	*2\right	*	*	*
2G\	-le-	2B\	-le-	2d\	-le-
=2	=2	=2	=2	=2	=2
2E\	-lu-	1G/	-lu-	2c\	-lu-
2D\	.	.	.	2B\	.
2C\	-ia	2G/	-ia	2c\	-ia
=3	=3	=3	=3	=3	=3
2F\	al-	2A\	al-	2f\	al-
2G\	-le-	2c\	-le-	2e\	-le-
2G\	-lu-	2B\	-lu-	2d\	-lu-
=4	=4	=4	=4	=4	=4
2C/	-ia:	2c\	-ia.	2e\	-ia.
2C/	Vir-	2e\	Vir-	2g\	Vir-
2E/	-ga	2c\	-ga	2e\	-ga
=5	=5	=5	=5	=5	=5
1G\	jeſ-	1B\	jeſ-	1d\	jeſ-
2c\	-se	2c\	-se	2e\	-se
!LO:LB:g=original	!	!LO:LB:g=original	!	!	!
=6	=6	=6	=6	=6	=6
1G\	flo-	2d\	flo-	2f\	flo-
.	.	4d\	.	4f\	.
.	.	4c\	.	4e\	.
!	!	!	!	!LO:LB:g=original	!
2G\	-ru-	4B\	.	4d\	.
.	.	4d\	-ru-	4f\	-ru-
=7	=7	=7	=7	=7	=7
2c\	-it	2c\	-it	2e\	-it:
2c\	vir-	2G/	vir-	2e\	vir-
2c\	-go	2G/	-go	2e\	-go
=8	=8	=8	=8	=8	=8
2A\	De-	2d\	De-	2f#X\	De-
2A\	-um	2d\	-um	2f#\	-um
2B\	et	2d\	et	2g\	et
=9	=9	=9	=9	=9	=9
2.F#X\	ho-	2.c\	ho-	2.e\	ho-
4F#\	-mi-	4c\	-mi-	4e\	-mi-
2G\	-nem	2B\	-nem	2d\	-nem
=10	=10	=10	=10	=10	=10
2C/	ge-	2c\	ge-	2e\	ge-
2.D/	.	2.B\	.	2.d\	.
4D/	-nu-	4A\	-nu-	4d\	-nu-
=11	=11	=11	=11	=11	=11
2G\	-it,	2B\	-it	2d\	-it
2G\	pa-	4B\	pa-	4d\	pa-
.	.	4d\	.	4fn\	.
2G\	-cem	4c\	-cem	4e\	.
.	.	4e\	.	4g\	-cem
!LO:LB:g=original	!	!LO:LB:g=original	!	!LO:LB:g=original	!
=12	=12	=12	=12	=12	=12
2B\	De-	1d\	De-	1f\	De-
2G\	.	.	.	.	.
2c\	-us	2c\	-us	2e\	-us
=13	=13	=13	=13	=13	=13
2c\	red-	2c\	red-	2e\	red-
2F\	.	4B\	.	4d\	.
.	.	4c\	.	4e\	.
2F#X\	-di-	4B\	.	4d\	.
.	.	4A\	-di-	4c\	-di-
=14	=14	=14	=14	=14	=14
2G\	-dit,	2G/	-dit,	2B\	-dit,
2G\	in	2G/	in	2B\	in
2F#X\	se	2A/	se	2c\	se
=15	=15	=15	=15	=15	=15
1Fn\	re-	1B\	re-	1d\	re-
2E\	-con-	2c\	-con-	2e\	-con-
=16	=16	=16	=16	=16	=16
2.G\	-ci-	2.d\	-ci-	2.f\	-ci-
4G\	-li-	4d\	-li-	4f\	-li-
2c\	-ans	2c\	-ans	2e\	-ans
=17	=17	=17	=17	=17	=17
2F\	i-	2A\	i-	4d\	i-
.	.	.	.	4e\	.
2F\	-ma	2A\	-ma	4f\	-ma
.	.	.	.	4d\	.
2G\	sum-	4e\	sum-	4c\	sum-
.	.	4d\	.	4B\	.
!LO:PB:g=original	!	!LO:LB:g=original	!	!LO:LB:g=original	!
=18	=18	=18	=18	=18	=18
2C/	-mis	2e\	-mis	2c\	-mus
2G\	in	2G/	in	2B\	in
2F#X\	se	2A/	se	2c\	se
=19	=19	=19	=19	=19	=19
1Fn\	re-	1B\	re-	1d\	re-
2E\	-con-	2c\	-con-	2e\	-con-
=20	=20	=20	=20	=20	=20
2.G\	-ci-	2.d\	-ci-	2.f\	-ci-
4G\	-li-	4d\	-li-	4f\	-li-
2c\	-ans	2c\	-ans	2e\	-ans
=21	=21	=21	=21	=21	=21
2F\	i-	2A\	i-	4d\	i-
.	.	.	.	4e\	.
2F\	-ma	2A\	-ma	4f\	-ma
.	.	.	.	4d\	.
2G\	sum-	4e\	sum-	4c\	sum-
.	.	4d\	.	4B\	.
=22	=22	=22	=22	=22	=22
2C/	-mis	2e\	-mis	2c\	-mis
2c\	al-	2e\	al-	2g\	al-
2G\	-le-	2d\	-le-	2f\	-le-
=23	=23	=23	=23	=23	=23
2E\	-lu-	2c\	-lu-	2e\	-lu-
2D\	.	2B\	.	2d\	.
2C\	-ia	2c\	-ia	2e\	-ia
!	!	!LO:LB:g=original	!	!LO:LB:g=original	!
=24	=24	=24	=24	=24	=24
2F\	al-	2d\	al-	2f\	al-
2G\	-le-	2c\	-le-	2e\	-le-
2GG/	-lu-	2B\	-lu-	2d\	-lu-
=25	=25	=25	=25	=25	=25
1.C/	-ia	1.G/	-ia	1.e\	-ia
==	==	==	==	==	==
*-	*-	*-	*-	*-	*-
!!!system-decoration: [(s1,s2,s3)]
!!!EED: Andrzej Borzym
!!!EST: 2021-08-07
!!!ENC: Andrzej Gręziak
!!!END: 2021-07-07
